X:1
T:Watch and Pray
T:William James Kirkpatrick
T:Watch and Pray
T:Public Domain
T:Public Domain
T:Public Domain
C:William James Kirkpatrick
Z:Public Domain
%%score ( 1 2 ) ( 3 4 )
L:1/8
M:4/4
K:Eb
V:1 treble 
V:2 treble 
V:3 bass 
V:4 bass 
V:1
 [B,E]>[B,F] | [EG]3 [B,F] [B,E]>[EG] [GB]>[Ac] | [GB]4 [EG]2 [FA]>[EG] | [DF]3 [EG] [FA]2 [DB]2 | %4
w: 1.~Watch and|pray that when the Mas- ter|com- eth, If at|morn- ing, noon or|
w: 2.~Watch and|pray; the tempt- er may be|near us; Keep the|heart with jeal- ous|
w: 3.~Watch and|pray, nor let us ev- er|wear- y; Je- sus|watched and prayed a-|
w: 4.~Watch and|pray, nor leave our post of|du- ty, Till we|hear the Bride- groom’s|
 [EG]6 [B,E]>[B,F] | [EG]3 [B,F] [B,E]>[EG] [GB]>[Ac] | [GB]4 [EG]2 [FA]>[EG] | %7
w: night, He may|find a lamp in ev- ery|win- dow, Trimmed and|
w: care, Lest the|door, a mo- ment left un-|guard- ed, E- vil|
w: lone: Prayed for|us when on- ly stars be-|held Him, While on|
w: voice: Then, with|Him the mar- riage feast par-|tak- ing, We shall|
 [DF]3 [DF] [Dc]2 [DB]2 | E6 ||"^Refrain" (3([DB][Ec])[Fd] x | [Ge]4- [Ge]>[Ac] [EA]>[Ac] | %11
w: burn- ing clear and|bright.|||
w: thoughts may en- ter|there.|and * pray,|the * Lord com- mand-|
w: Ol- ive’s brow they|shone.|||
w: ev- er- more re-|joice.|||
 [GB]4 [EG]2 [GB]>[GB] | [FAd]4- [FAd]>[Ac] [FA]>[DF] | [EG]6 (3([FB][Gc])[Ad] | %14
w: |||
w: eth; Watch and pray,|’twill * not be long:|Soon He’ll * ga-|
w: |||
w: |||
 [Ge]4- [Ge]>[Ac] [EA]>[Ac] | [GB]4 [EG]2 [FA]>[EG] | [DF]3 [DF] [Dc]2 [DB]2 | (E2 C2 B,2) |] %18
w: ||||
w: ther * home His loved|ones, To the hap-|py vale of song.||
w: ||||
w: ||||
V:2
 x2 | x8 | x8 | x8 | x8 | x8 | x8 | x8 | E6 || x3 | x8 | x8 | x8 | x8 | x8 | x8 | x8 | E6 |] %18
w: ||||||||||||||||||
w: ||||||||Watch||||||||||
V:3
 [E,G,]>[E,A,] | [E,B,]3 [E,A,] [E,G,]>[E,B,] [E,E]>[E,E] | [E,E]4 [E,B,]2 [E,B,]>[E,B,] | %3
w: ~ ~|~ ~ ~ ~ ~ ~|~ ~ ~ ~|
 [B,,B,]3 [B,,B,] [B,,B,]2 [B,,B,]2 | [E,B,]6 [E,G,]>[E,A,] | %5
w: ~ ~ ~ ~|~ ~ ~|
 [E,B,]3 [E,A,] [E,G,]>[E,B,] [E,E]>[E,E] | [E,E]4 [E,B,]2 [E,B,]>[E,B,] | %7
w: ~ ~ ~ ~ ~ ~|~ ~ ~ ~|
 [B,,B,]3 [B,,B,] [B,,A,]2 [B,,A,]2 | [E,G,]6 || (3:2:2B,2 B, x | %10
w: ~ ~ ~ ~|~|Watch~and pray,|
 [E,B,]>[E,B,] [E,B,]>[E,B,] [E,B,]>[E,E] [E,C]>[E,E] | %11
w: com- mand- eth, Watch and pray, the Lord|
 [E,E]>[E,E] [E,E]>[E,E] ([E,B,]>[E,B,]) [E,B,]>[E,B,] | %12
w: com- mand- eth; Watch and * pray, ’twill|
 [B,,B,]>[B,,B,] [B,,B,]>[B,,B,] [B,,B,]2 [B,,B,]>[B,,B,] | %13
w: not be long, Watch and pray, ’twill|
 [E,B,]>[E,B,] [E,B,]>[E,B,] [E,B,]2 (3(DE)[B,F] | %14
w: not be long; Soon He’ll ga- * ther|
 [E,E]>[E,B,] [E,B,]>[E,B,] [E,B,]>[E,E] [E,C]>[E,E] | %15
w: His loved ones, Soon He’ll ga- ther home|
 [E,E]>[E,E] [E,E]>[E,E] [E,B,]>[E,B,] [E,B,]>[E,B,] | [B,,B,]3 [B,,B,] [B,,A,]2 [B,,A,]2 | %17
w: His loved ones To the hap- py vale|of song, the vale|
 G,>G, A,>A, G,2 |] %18
w: of song. * * *|
V:4
 x2 | x8 | x8 | x8 | x8 | x8 | x8 | x8 | x6 || B,2 B, | x8 | x8 | x8 | x6 B,2 | x8 | x8 | x8 | %17
w: |||||||||the Lord||||home||||
 E,4 x2 |] %18
w: |

